public/logo.svg

<svg width="68" height="55" viewBox="0 0 68 55" fill="none" xmlns="http://www.w3.org/2000/svg">
    <path d="M10.9126 43.8496H21.7619L17.3016 55.0003H6.45233L10.9126 43.8496Z" fill="#0D5FBC"/>
    <path d="M39.3016 0L34.8745 11.0663H24.0252L28.4523 0H39.3016Z" fill="#0D5FBC"/>
    <path d="M37.2523 33.0001L32.9126 43.8494H10.9126L15.2523 33.0001L19.6855 21.9157H8.60712L12.9468 11.0664H34.8745L30.5348 21.9157L26.1016 33.0001H37.2523Z"
          fill="#06D7A0"/>
    <path d="M61.3016 0L56.8745 11.0663L52.5348 21.9156L48.1016 33L43.7619 43.8493L39.3016 55H28.4523L32.9126 43.8493L37.2523 33L41.6855 21.9156H30.5348L34.8745 11.0663H46.0252L50.4523 0H61.3016Z"
          fill="#0D5FBC"/>
    <path d="M67.9468 11.0664L63.6071 21.9157H52.5348L56.8745 11.0664H67.9468Z" fill="#06D7A0"/>
    <path d="M4.34274 33H15.2523L10.9126 43.8493H0L4.34274 33Z" fill="#0D5FBC"/>
    <path d="M59.3428 33L55 43.8493H43.7619L48.1017 33H59.3428Z" fill="#06D7A0"/>
</svg>

<svg width="68" height="55" viewBox="0 0 68 55" fill="none" xmlns="http://www.w3.org/2000/svg"><path d="M10.913 43.85h10.849L17.302 55H6.452l4.46-11.15ZM39.302 0l-4.428 11.066H24.025L28.452 0h10.85Z" fill="#0D5FBC"/><path d="m37.252 33-4.34 10.85h-22L15.253 33l4.434-11.084H8.607l4.34-10.85h21.927l-4.34 10.85L26.103 33h11.15Z" fill="#06D7A0"/><path d="m61.302 0-4.428 11.066-4.34 10.85L48.103 33l-4.34 10.85L39.302 55h-10.85l4.46-11.15L37.253 33l4.433-11.084h-11.15l4.34-10.85h11.15L50.452 0h10.85Z" fill="#0D5FBC"/><path d="m67.947 11.066-4.34 10.85H52.535l4.34-10.85h11.072Z" fill="#06D7A0"/><path d="M4.343 33h10.91l-4.34 10.85H0L4.343 33Z" fill="#0D5FBC"/><path d="M59.343 33 55 43.85H43.762L48.102 33h11.24Z" fill="#06D7A0"/></svg>
